X: 3
T:Bluebird Waltz [in G], The
M:9/8
L:1/8
C:Tabby Finch
R:Waltz
K:G
d ede[|:g3- g2d ede|B3- B2d ede|g3- g2d ede|A3- A2d ecd|!
b2a- a2g aga|A3- A2d ecd|b2a a2g ede|1B3- B2d ede:|2g3- g2z Bde|!
|:g3- g2g {b}aga|b3- b3 Bde|g3- g2g {b}agb|a3- a3 ega|!
a3- a2g agb|a3- a2d ecd|b2a- a2g ede|1g3- g2z Bde:|2g3- g2|]!
